X: 16808
T: Harry Cotter's Schottische
R: barndance
M: 4/4
K: Dmajor
|:F>G|A>f e>dc>e (3dcB|A2F2 F>ED>F|A2G2 G>FE>G|B2A2 A>GF>G|
A>fe>d c>e (3dcB|A2F2 F>ED>F|A>dc>B A>GF>E|D2 F>Ad2:|
|:F>G|A2d2d2e2|d2 c>B c2 E>F|G2B2B2c2|B2 A>G A>GF>G|
A2d2d2e2|d2 c>B c2E2|G2 c>B A2 c>B|(3GFE D2 D2:|

